T: Polca Cefn-Coed
M: 2/4
L: 1/8
K: Dmaj
|: F/G/ |
Af d>B | Ad F2 | Ec c/B/A/G/ | Fd A2 |
A>f dc/B/ | Ad F2 | Ec c/B/G/E/ | Dd d :|
|: d/c/ |
Bg g/f/e | Af f2 | Ge e/d/c | df a2 |
Bg g/f/e | Af f2 | Ge e/d/c | dd/d/ d :|
